X:257
M:C
L:1/8
K:G
E>A G/F/E/D/ G2G||
(3ced (3cBA (3GDC (3 B,A,G,|d>BA>G g>d B<G|(3cec (3BdB A>Bc>e|
(3dcB (3ABF (3GFE (3DCB,|(3CDE (3DEF (3GDC (3B,A,G,||

